svg/source_commit_end.svg

<?xml version="1.0" encoding="UTF-8"?><!DOCTYPE svg PUBLIC "-//W3C//DTD SVG 1.1//EN" "http://www.w3.org/Graphics/SVG/1.1/DTD/svg11.dtd"><svg xmlns="http://www.w3.org/2000/svg" xmlns:xlink="http://www.w3.org/1999/xlink" version="1.1" id="mdi-source-commit-end" width="24" height="24" viewBox="0 0 24 24"><path d="M17,12A5,5 0 0,1 12,17A5,5 0 0,1 7,12C7,9.58 8.72,7.56 11,7.1V3H13V7.1C15.28,7.56 17,9.58 17,12M12,9A3,3 0 0,0 9,12A3,3 0 0,0 12,15A3,3 0 0,0 15,12A3,3 0 0,0 12,9Z" /></svg>

<svg xmlns="http://www.w3.org/2000/svg" viewBox="0 0 24 24"><path d="M17 12a5 5 0 0 1-5 5 5 5 0 0 1-5-5 5 5 0 0 1 4-4.9V3h2v4.1a5 5 0 0 1 4 4.9m-5-3a3 3 0 0 0-3 3 3 3 0 0 0 3 3 3 3 0 0 0 3-3 3 3 0 0 0-3-3"/></svg>
